X:52
T:Polska efter Olof Knut-Ekvall
T:(SvL Sm. 52)
R:Polska
O:Säby, Småland
S:Efter Olof Knut-Ekvall
B:Svenska Låtar Småland
Z:Jonas Brunskog
M:3/4
L:1/8
K:G
|:GB/c/ dB/d/ gg|GB/c/ dB/d/ gg|(fa) (fa) .e.g|f(e/g/) (Tfe) e2:|
|:(dg) (gd) .B.c|(BA) (ce) .e.d|(dg) (gd) .B.c|(BA) (ce) .e.d|(Bc) (BA) G(G/F/)|(AG) [GG,]4:|

